images/Logo-2.svg

<svg fill="none" height="48" viewBox="0 0 183 48" width="183" xmlns="http://www.w3.org/2000/svg" xmlns:xlink="http://www.w3.org/1999/xlink"><clipPath id="a"><path d="m0 0h48.142v48h-48.142z"/></clipPath><g fill="#bbc3cf"><g clip-path="url(#a)" clip-rule="evenodd" fill-rule="evenodd"><path d="m26.7091 47.0853c5.1949-.6065 10.0331-2.9484 13.7314-6.6467s6.0401-8.5365 6.6466-13.7313h-8.7307c-.5507 2.883-1.956 5.5338-4.0332 7.6076-2.0771 2.0738-4.7301 3.4747-7.6141 4.0207z"/><path d="m34.4645 3.24608.055-.03597c5.6494-3.2460879 10.2174-4.200631 12.3442-2.07193 6.0168 6.01492-10.9504 24.72442-15.9767 29.75072-3.0227 3.0316-6.226 5.8776-9.5924 8.5224v7.6683c-2.7065-.3073-5.3362-1.0962-7.7649-2.3295l-.0549.036c-5.64938 3.2461-10.21543 4.2006-12.34414 2.0832-2.91655-2.9165.49613-9.6303 2.1097-12.401-1.22563-2.4317-2.01409-5.06-2.329416-7.7648h8.749596c.38266 2.0307 1.19196 3.9572 2.37446 5.6519s2.7112 3.1192 4.4852 4.1791c-1.0095.733-2.036 1.4299-3.1003 2.0833-1.5587.9905-3.1722 1.926-4.84259 2.7688-1.30729-1.1577-2.47658-2.4623-3.4847-3.8881-1.76129 3.3938-2.34838 5.888-1.41281 6.8179 4.01688 3.9771 22.0843-12.6188 25.0558-15.5903 3.1636-3.1594 6.1227-6.517 8.8594-10.0526-.9018-2.3047-2.3749-4.3422-4.2808-5.9208-1.906-1.5787-4.1822-2.6466-6.6145-3.10345v-8.749696c2.707.304566 5.3372 1.093616 7.7648 2.329466zm8.4372 7.24592c1.7613-3.3938 2.3483-5.88802 1.4128-6.81791-.9356-.92988-3.4089-.32952-6.8046 1.43178 2.0875 1.48148 3.9103 3.30429 5.3918 5.39183z"/><path d="m21.2984.916626c-5.195.606904-10.0332 2.949214-13.73145 6.647804-3.69825 3.69857-6.04014 8.53697-6.646563 13.73207h8.749693c.54322-2.8834 1.94362-5.5359 4.01822-7.6108 2.0745-2.0749 4.7268-3.4757 7.6101-4.01943z"/></g><path d="m87.6136 29.5568c0 1.0114-.1931 1.966-.5795 2.8637-.375.8863-.8977 1.6648-1.5682 2.3352-.6591.6591-1.4375 1.1818-2.3352 1.5682-.8864.375-1.8352.5625-2.8466.5625-.9091 0-1.7841-.1591-2.625-.4773-.8296-.3182-1.5796-.7841-2.25-1.3977-.6705.6136-1.4261 1.0795-2.2671 1.3977-.8409.3182-1.7159.4773-2.625.4773-1.0113 0-1.9659-.1875-2.8636-.5625-.8864-.3864-1.6648-.9091-2.3352-1.5682-.6591-.6704-1.1818-1.4489-1.5682-2.3352-.375-.8977-.5625-1.8523-.5625-2.8637v-17.4545h4.892v17.4545c0 .341.0625.6648.1875.9716.125.2955.2955.5569.5114.7841.2273.2159.4886.3864.7841.5114s.6136.1875.9545.1875c.341 0 .6591-.0625.9546-.1875.2954-.125.5511-.2955.767-.5114.2273-.2272.4034-.4886.5284-.7841.125-.3068.1875-.6306.1875-.9716v-17.4545h4.8921v17.4545c0 .341.0625.6648.1875.9716.125.2955.2954.5569.5114.7841.2272.2159.4886.3864.784.5114.2955.125.6137.1875.9546.1875s.6591-.0625.9545-.1875c.2955-.125.5512-.2955.7671-.5114.2273-.2272.4034-.4886.5284-.7841.1364-.3068.2045-.6306.2045-.9716v-17.4545h4.875z"/><path d="m96.9886 13.3296c0 .4318-.0852.8352-.2556 1.2102-.1591.375-.3807.7045-.6648.9886-.2841.2728-.6193.4943-1.0057.6648-.375.1591-.7784.2386-1.2102.2386s-.8409-.0795-1.2273-.2386c-.375-.1705-.7045-.392-.9886-.6648-.2728-.2841-.4944-.6136-.6648-.9886-.1591-.375-.2386-.7784-.2386-1.2102 0-.4205.0795-.8182.2386-1.1932.1704-.3864.392-.7159.6648-.9887.2841-.284.6136-.5056.9886-.6647.3864-.1705.7955-.2557 1.2273-.2557s.8352.0852 1.2102.2557c.3864.1591.7216.3807 1.0057.6647.2841.2728.5057.6023.6648.9887.1704.375.2556.7727.2556 1.1932zm-.8011 23.2159h-4.6875v-18.2557h4.6875z"/><path d="m109.773 36.5455h-10.6366v-4.6364h10.6366c.318 0 .591-.1136.818-.3409s.341-.5.341-.8182c0-.3295-.114-.5454-.341-.6477s-.5-.1534-.818-.1534h-4.841c-.807 0-1.563-.1534-2.267-.4602-.705-.3069-1.318-.7216-1.841-1.2444-.523-.534-.9376-1.1534-1.2445-1.8579-.2954-.7046-.4431-1.4602-.4431-2.2671 0-.8068.1477-1.5625.4431-2.267.3069-.7046.7215-1.3182 1.2445-1.8409s1.136-.9318 1.841-1.2273c.704-.3068 1.46-.4602 2.267-.4602h9.426v4.6363h-9.426c-.318 0-.591.1137-.818.341-.228.2272-.341.5-.341.8181 0 .3296.113.6137.341.8523.227.2273.5.3409.818.3409h4.841c.795 0 1.545.1364 2.25.4091.704.2614 1.318.6307 1.841 1.108.522.4772.937 1.0511 1.244 1.7216.307.6704.46 1.4034.46 2.1988 0 .8068-.153 1.5625-.46 2.2671-.307.6932-.722 1.3068-1.244 1.8409-.523.5227-1.137.9375-1.841 1.2443-.705.2955-1.455.4432-2.25.4432z"/><path d="m122.71 36.5455h-4.653v-25.5171h4.653v8.0625c.557-.4204 1.131-.7159 1.722-.8863.591-.1819 1.193-.2728 1.807-.2728 1.125 0 2.181.2159 3.17.6478.989.4204 1.847 1.0056 2.574 1.7556.739.7387 1.318 1.608 1.739 2.608.431.9886.647 2.0455.647 3.1705v10.4318h-4.687v-10.4318h.034c0-.4773-.091-.9262-.273-1.3466-.182-.4319-.432-.8069-.75-1.125-.318-.3182-.687-.5682-1.108-.75-.42-.1819-.869-.2728-1.346-.2728-.489 0-.949.0909-1.381.2728-.432.1818-.807.4318-1.125.75-.318.3181-.568.6931-.75 1.125-.182.4204-.273.8693-.273 1.3466z"/><path d="m144.955 32.0796c.181.0568.363.0966.545.1193.182.0114.364.017.545.017.455 0 .893-.0625 1.313-.1875s.812-.3011 1.176-.5284c.375-.2386.705-.5227.989-.8522.295-.341.534-.716.716-1.125l3.409 3.4261c-.432.6136-.932 1.1648-1.5 1.6534-.557.4886-1.165.9034-1.824 1.2443-.648.3409-1.335.5966-2.063.7671-.716.1818-1.454.2727-2.216.2727-1.284 0-2.494-.2386-3.63-.7159-1.125-.4773-2.114-1.1421-2.966-1.9943-.841-.8523-1.506-1.8637-1.994-3.0341-.489-1.1818-.733-2.4773-.733-3.8864 0-1.4432.244-2.7614.733-3.9545.488-1.1932 1.153-2.2103 1.994-3.0512.852-.8409 1.841-1.4943 2.966-1.9602 1.136-.4659 2.346-.6989 3.63-.6989.762 0 1.506.0909 2.233.2728.728.1818 1.415.4431 2.063.784.659.341 1.273.7614 1.841 1.2614.568.4886 1.068 1.0398 1.5 1.6534zm2.386-9.5966c-.216-.0796-.432-.1307-.648-.1534-.204-.0228-.42-.0341-.648-.0341-.636 0-1.238.1193-1.806.3579-.557.2273-1.046.5568-1.466.9887-.409.4318-.733.9545-.972 1.5681-.239.6023-.358 1.2841-.358 2.0455 0 .1705.006.3636.017.5796.023.2159.051.4375.085.6647.046.2159.097.4262.154.6307.057.2046.131.3864.221.5455z"/><path d="m160.722 36.5455h-4.688v-25.5171h4.688z"/><path d="m168.972 43.5h-4.688v-25.2102h1.125l1.858 2.1989c.421-.3978.881-.7728 1.381-1.125.5-.3523 1.017-.6535 1.551-.9035.545-.2613 1.108-.4659 1.687-.6136.58-.1477 1.165-.2216 1.756-.2216 1.284 0 2.489.233 3.614.6989 1.136.4545 2.125 1.1023 2.966 1.9432.852.8409 1.522 1.8579 2.011 3.0511.489 1.1818.733 2.4943.733 3.9375 0 1.5-.244 2.8523-.733 4.0568-.489 1.1932-1.159 2.2103-2.011 3.0512-.841.8295-1.83 1.4659-2.966 1.9091-1.125.4431-2.33.6647-3.614.6647-.409 0-.818-.0454-1.227-.1363-.398-.0909-.796-.2103-1.193-.358-.387-.1591-.773-.3352-1.16-.5284-.374-.1932-.738-.392-1.09-.5966zm9.323-16.2443c0-.7727-.125-1.4659-.375-2.0795-.238-.6137-.568-1.1307-.988-1.5512-.421-.4318-.915-.7613-1.483-.9886s-1.171-.3409-1.807-.3409-1.239.1136-1.807.3409c-.557.2273-1.045.5568-1.466.9886-.42.4205-.755.9375-1.005 1.5512-.239.6136-.358 1.3068-.358 2.0795 0 .7386.119 1.4148.358 2.0284.25.6137.585 1.1364 1.005 1.5682.421.4318.909.767 1.466 1.0057.568.2386 1.171.3579 1.807.3579s1.239-.1193 1.807-.3579c.568-.2387 1.062-.5739 1.483-1.0057.42-.4318.75-.9545.988-1.5682.25-.6136.375-1.2898.375-2.0284z"/></g></svg>

<svg width="183" height="48" viewBox="0 0 183 48" fill="none" xmlns="http://www.w3.org/2000/svg">
<g clip-path="url(#clip0_2614_13084)">
<path fill-rule="evenodd" clip-rule="evenodd" d="M26.7091 47.0853C31.904 46.4788 36.7422 44.1369 40.4405 40.4386C44.1388 36.7403 46.4806 31.9021 47.0871 26.7073H38.3564C37.8057 29.5903 36.4004 32.2411 34.3232 34.3149C32.2461 36.3887 29.5931 37.7896 26.7091 38.3356V47.0853Z" fill="#BBC3CF"/>
<path fill-rule="evenodd" clip-rule="evenodd" d="M34.4645 3.24608L34.5195 3.21011C40.1689 -0.0359779 44.7369 -0.990521 46.8637 1.13818C52.8805 7.1531 35.9133 25.8626 30.887 30.8889C27.8643 33.9205 24.661 36.7665 21.2946 39.4113V47.0796C18.5881 46.7723 15.9584 45.9834 13.5297 44.7501L13.4748 44.7861C7.82542 48.0322 3.25937 48.9867 1.13066 46.8693C-1.78589 43.9528 1.62679 37.239 3.24036 34.4683C2.01473 32.0366 1.22627 29.4083 0.910944 26.7035H9.66054C10.0432 28.7342 10.8525 30.6607 12.035 32.3554C13.2175 34.0501 14.7462 35.4746 16.5202 36.5345C15.5107 37.2675 14.4842 37.9644 13.4199 38.6178C11.8612 39.6083 10.2477 40.5438 8.57731 41.3866C7.27002 40.2289 6.10073 38.9243 5.09261 37.4985C3.33132 40.8923 2.74423 43.3865 3.6798 44.3164C7.69668 48.2935 25.7641 31.6976 28.7356 28.7261C31.8992 25.5667 34.8583 22.2091 37.595 18.6735C36.6932 16.3688 35.2201 14.3313 33.3142 12.7527C31.4082 11.174 29.132 10.1061 26.6997 9.64925V0.899554C29.4067 1.20412 32.0369 1.99317 34.4645 3.22902V3.24608ZM42.9017 10.492C44.663 7.0982 45.25 4.60398 44.3145 3.67409C43.3789 2.74421 40.9056 3.34457 37.5099 5.10587C39.5974 6.58735 41.4202 8.41016 42.9017 10.4977V10.492Z" fill="#BBC3CF"/>
<path fill-rule="evenodd" clip-rule="evenodd" d="M21.2984 0.916626C16.1034 1.52353 11.2652 3.86584 7.56695 7.56443C3.8687 11.263 1.52681 16.1014 0.920387 21.2965H9.67008C10.2133 18.4131 11.6137 15.7606 13.6883 13.6857C15.7628 11.6108 18.4151 10.21 21.2984 9.66627V0.916626Z" fill="#BBC3CF"/>
</g>
<path d="M87.6136 29.5568C87.6136 30.5682 87.4205 31.5228 87.0341 32.4205C86.6591 33.3068 86.1364 34.0853 85.4659 34.7557C84.8068 35.4148 84.0284 35.9375 83.1307 36.3239C82.2443 36.6989 81.2955 36.8864 80.2841 36.8864C79.375 36.8864 78.5 36.7273 77.6591 36.4091C76.8295 36.0909 76.0795 35.625 75.4091 35.0114C74.7386 35.625 73.983 36.0909 73.142 36.4091C72.3011 36.7273 71.4261 36.8864 70.517 36.8864C69.5057 36.8864 68.5511 36.6989 67.6534 36.3239C66.767 35.9375 65.9886 35.4148 65.3182 34.7557C64.6591 34.0853 64.1364 33.3068 63.75 32.4205C63.375 31.5228 63.1875 30.5682 63.1875 29.5568V12.1023H68.0795V29.5568C68.0795 29.8978 68.142 30.2216 68.267 30.5284C68.392 30.8239 68.5625 31.0853 68.7784 31.3125C69.0057 31.5284 69.267 31.6989 69.5625 31.8239C69.858 31.9489 70.1761 32.0114 70.517 32.0114C70.858 32.0114 71.1761 31.9489 71.4716 31.8239C71.767 31.6989 72.0227 31.5284 72.2386 31.3125C72.4659 31.0853 72.642 30.8239 72.767 30.5284C72.892 30.2216 72.9545 29.8978 72.9545 29.5568V12.1023H77.8466V29.5568C77.8466 29.8978 77.9091 30.2216 78.0341 30.5284C78.1591 30.8239 78.3295 31.0853 78.5455 31.3125C78.7727 31.5284 79.0341 31.6989 79.3295 31.8239C79.625 31.9489 79.9432 32.0114 80.2841 32.0114C80.625 32.0114 80.9432 31.9489 81.2386 31.8239C81.5341 31.6989 81.7898 31.5284 82.0057 31.3125C82.233 31.0853 82.4091 30.8239 82.5341 30.5284C82.6705 30.2216 82.7386 29.8978 82.7386 29.5568V12.1023H87.6136V29.5568Z" fill="#BBC3CF"/>
<path d="M96.9886 13.3296C96.9886 13.7614 96.9034 14.1648 96.733 14.5398C96.5739 14.9148 96.3523 15.2443 96.0682 15.5284C95.7841 15.8012 95.4489 16.0227 95.0625 16.1932C94.6875 16.3523 94.2841 16.4318 93.8523 16.4318C93.4205 16.4318 93.0114 16.3523 92.625 16.1932C92.25 16.0227 91.9205 15.8012 91.6364 15.5284C91.3636 15.2443 91.142 14.9148 90.9716 14.5398C90.8125 14.1648 90.733 13.7614 90.733 13.3296C90.733 12.9091 90.8125 12.5114 90.9716 12.1364C91.142 11.75 91.3636 11.4205 91.6364 11.1477C91.9205 10.8637 92.25 10.6421 92.625 10.483C93.0114 10.3125 93.4205 10.2273 93.8523 10.2273C94.2841 10.2273 94.6875 10.3125 95.0625 10.483C95.4489 10.6421 95.7841 10.8637 96.0682 11.1477C96.3523 11.4205 96.5739 11.75 96.733 12.1364C96.9034 12.5114 96.9886 12.9091 96.9886 13.3296ZM96.1875 36.5455H91.5V18.2898H96.1875V36.5455Z" fill="#BBC3CF"/>
<path d="M109.773 36.5455H99.1364V31.9091H109.773C110.091 31.9091 110.364 31.7955 110.591 31.5682C110.818 31.3409 110.932 31.0682 110.932 30.75C110.932 30.4205 110.818 30.2046 110.591 30.1023C110.364 30 110.091 29.9489 109.773 29.9489H104.932C104.125 29.9489 103.369 29.7955 102.665 29.4887C101.96 29.1818 101.347 28.7671 100.824 28.2443C100.301 27.7103 99.8864 27.0909 99.5795 26.3864C99.2841 25.6818 99.1364 24.9262 99.1364 24.1193C99.1364 23.3125 99.2841 22.5568 99.5795 21.8523C99.8864 21.1477 100.301 20.5341 100.824 20.0114C101.347 19.4887 101.96 19.0796 102.665 18.7841C103.369 18.4773 104.125 18.3239 104.932 18.3239H114.358V22.9602H104.932C104.614 22.9602 104.341 23.0739 104.114 23.3012C103.886 23.5284 103.773 23.8012 103.773 24.1193C103.773 24.4489 103.886 24.733 104.114 24.9716C104.341 25.1989 104.614 25.3125 104.932 25.3125H109.773C110.568 25.3125 111.318 25.4489 112.023 25.7216C112.727 25.983 113.341 26.3523 113.864 26.8296C114.386 27.3068 114.801 27.8807 115.108 28.5512C115.415 29.2216 115.568 29.9546 115.568 30.75C115.568 31.5568 115.415 32.3125 115.108 33.0171C114.801 33.7103 114.386 34.3239 113.864 34.858C113.341 35.3807 112.727 35.7955 112.023 36.1023C111.318 36.3978 110.568 36.5455 109.773 36.5455Z" fill="#BBC3CF"/>
<path d="M122.71 36.5455H118.057V11.0284H122.71V19.0909C123.267 18.6705 123.841 18.375 124.432 18.2046C125.023 18.0227 125.625 17.9318 126.239 17.9318C127.364 17.9318 128.42 18.1477 129.409 18.5796C130.398 19 131.256 19.5852 131.983 20.3352C132.722 21.0739 133.301 21.9432 133.722 22.9432C134.153 23.9318 134.369 24.9887 134.369 26.1137V36.5455H129.682V26.1137H129.716C129.716 25.6364 129.625 25.1875 129.443 24.7671C129.261 24.3352 129.011 23.9602 128.693 23.6421C128.375 23.3239 128.006 23.0739 127.585 22.8921C127.165 22.7102 126.716 22.6193 126.239 22.6193C125.75 22.6193 125.29 22.7102 124.858 22.8921C124.426 23.0739 124.051 23.3239 123.733 23.6421C123.415 23.9602 123.165 24.3352 122.983 24.7671C122.801 25.1875 122.71 25.6364 122.71 26.1137V36.5455Z" fill="#BBC3CF"/>
<path d="M144.955 32.0796C145.136 32.1364 145.318 32.1762 145.5 32.1989C145.682 32.2103 145.864 32.2159 146.045 32.2159C146.5 32.2159 146.938 32.1534 147.358 32.0284C147.778 31.9034 148.17 31.7273 148.534 31.5C148.909 31.2614 149.239 30.9773 149.523 30.6478C149.818 30.3068 150.057 29.9318 150.239 29.5228L153.648 32.9489C153.216 33.5625 152.716 34.1137 152.148 34.6023C151.591 35.0909 150.983 35.5057 150.324 35.8466C149.676 36.1875 148.989 36.4432 148.261 36.6137C147.545 36.7955 146.807 36.8864 146.045 36.8864C144.761 36.8864 143.551 36.6478 142.415 36.1705C141.29 35.6932 140.301 35.0284 139.449 34.1762C138.608 33.3239 137.943 32.3125 137.455 31.1421C136.966 29.9603 136.722 28.6648 136.722 27.2557C136.722 25.8125 136.966 24.4943 137.455 23.3012C137.943 22.108 138.608 21.0909 139.449 20.25C140.301 19.4091 141.29 18.7557 142.415 18.2898C143.551 17.8239 144.761 17.5909 146.045 17.5909C146.807 17.5909 147.551 17.6818 148.278 17.8637C149.006 18.0455 149.693 18.3068 150.341 18.6477C151 18.9887 151.614 19.4091 152.182 19.9091C152.75 20.3977 153.25 20.9489 153.682 21.5625L144.955 32.0796ZM147.341 22.483C147.125 22.4034 146.909 22.3523 146.693 22.3296C146.489 22.3068 146.273 22.2955 146.045 22.2955C145.409 22.2955 144.807 22.4148 144.239 22.6534C143.682 22.8807 143.193 23.2102 142.773 23.6421C142.364 24.0739 142.04 24.5966 141.801 25.2102C141.562 25.8125 141.443 26.4943 141.443 27.2557C141.443 27.4262 141.449 27.6193 141.46 27.8353C141.483 28.0512 141.511 28.2728 141.545 28.5C141.591 28.7159 141.642 28.9262 141.699 29.1307C141.756 29.3353 141.83 29.5171 141.92 29.6762L147.341 22.483Z" fill="#BBC3CF"/>
<path d="M160.722 36.5455H156.034V11.0284H160.722V36.5455Z" fill="#BBC3CF"/>
<path d="M168.972 43.5H164.284V18.2898H165.409L167.267 20.4887C167.688 20.0909 168.148 19.7159 168.648 19.3637C169.148 19.0114 169.665 18.7102 170.199 18.4602C170.744 18.1989 171.307 17.9943 171.886 17.8466C172.466 17.6989 173.051 17.625 173.642 17.625C174.926 17.625 176.131 17.858 177.256 18.3239C178.392 18.7784 179.381 19.4262 180.222 20.2671C181.074 21.108 181.744 22.125 182.233 23.3182C182.722 24.5 182.966 25.8125 182.966 27.2557C182.966 28.7557 182.722 30.108 182.233 31.3125C181.744 32.5057 181.074 33.5228 180.222 34.3637C179.381 35.1932 178.392 35.8296 177.256 36.2728C176.131 36.7159 174.926 36.9375 173.642 36.9375C173.233 36.9375 172.824 36.8921 172.415 36.8012C172.017 36.7103 171.619 36.5909 171.222 36.4432C170.835 36.2841 170.449 36.108 170.062 35.9148C169.688 35.7216 169.324 35.5228 168.972 35.3182V43.5ZM178.295 27.2557C178.295 26.483 178.17 25.7898 177.92 25.1762C177.682 24.5625 177.352 24.0455 176.932 23.625C176.511 23.1932 176.017 22.8637 175.449 22.6364C174.881 22.4091 174.278 22.2955 173.642 22.2955C173.006 22.2955 172.403 22.4091 171.835 22.6364C171.278 22.8637 170.79 23.1932 170.369 23.625C169.949 24.0455 169.614 24.5625 169.364 25.1762C169.125 25.7898 169.006 26.483 169.006 27.2557C169.006 27.9943 169.125 28.6705 169.364 29.2841C169.614 29.8978 169.949 30.4205 170.369 30.8523C170.79 31.2841 171.278 31.6193 171.835 31.858C172.403 32.0966 173.006 32.2159 173.642 32.2159C174.278 32.2159 174.881 32.0966 175.449 31.858C176.017 31.6193 176.511 31.2841 176.932 30.8523C177.352 30.4205 177.682 29.8978 177.92 29.2841C178.17 28.6705 178.295 27.9943 178.295 27.2557Z" fill="#BBC3CF"/>
<defs>
<clipPath id="clip0_2614_13084">
<rect width="48.142" height="48" fill="white"/>
</clipPath>
</defs>
</svg>
